icons/glyphs/glyph-film-mime.svg

<?xml version="1.0" encoding="UTF-8" standalone="no"?><svg height="16mm" viewBox="0 0 16 16" width="16mm" xmlns="http://www.w3.org/2000/svg"><sodipodi:namedview/><metadata><rdf:RDF><cc:Work><dc:format>image/svg+xml</dc:format><dc:type/><dc:title/></cc:Work></rdf:RDF></metadata><path d="m0 7.5585938v45.3554682h60.472656v-34.841796l-10.515625-10.5136722zm12.387956 10.8918612h34.096745v25.571746h-34.096745zm2.722405 2.872024v4.464159h4.465785v-4.464159zm24.013762 0v4.464159h4.465786v-4.464159zm-24.096702 7.680957v4.465785h4.464159v-4.465785zm24.012135 0v4.465785h4.464159v-4.465785zm-24.046288 7.680956v4.465785h4.46416v-4.465785zm24.012137 0v4.465785h4.465785v-4.465785z" fill="#d0d0d0" stroke-width="2.052171" transform="scale(.26458333)"/></svg>

<?xml version="1.0" encoding="UTF-8" standalone="no"?>
<!-- Created with Inkscape (http://www.inkscape.org/) -->

<svg
   xmlns:dc="http://purl.org/dc/elements/1.1/"
   xmlns:cc="http://creativecommons.org/ns#"
   xmlns:rdf="http://www.w3.org/1999/02/22-rdf-syntax-ns#"
   xmlns:svg="http://www.w3.org/2000/svg"
   xmlns="http://www.w3.org/2000/svg"
   xmlns:sodipodi="http://sodipodi.sourceforge.net/DTD/sodipodi-0.dtd"
   xmlns:inkscape="http://www.inkscape.org/namespaces/inkscape"
   width="16mm"
   height="16mm"
   viewBox="0 0 16 16"
   version="1.1"
   id="svg8"
   inkscape:version="0.92+devel (bc9c9b4297, 2017-07-16, custom)"
   sodipodi:docname="glyph-film-mime.svg">
  <defs
     id="defs2" />
  <sodipodi:namedview
     id="base"
     pagecolor="#002466"
     bordercolor="#ffffff"
     borderopacity="0.38039216"
     inkscape:pageopacity="1"
     inkscape:pageshadow="2"
     inkscape:zoom="7.1685545"
     inkscape:cx="30.23622"
     inkscape:cy="30.23622"
     inkscape:document-units="mm"
     inkscape:current-layer="svg8"
     inkscape:document-rotation="0"
     showgrid="false"
     inkscape:showpageshadow="false"
     borderlayer="true"
     inkscape:window-width="1920"
     inkscape:window-height="1051"
     inkscape:window-x="0"
     inkscape:window-y="0"
     inkscape:window-maximized="1"
     inkscape:snap-bbox="true"
     inkscape:snap-intersection-paths="true"
     inkscape:object-paths="true"
     showguides="false" />
  <metadata
     id="metadata5">
    <rdf:RDF>
      <cc:Work
         rdf:about="">
        <dc:format>image/svg+xml</dc:format>
        <dc:type
           rdf:resource="http://purl.org/dc/dcmitype/StillImage" />
        <dc:title></dc:title>
      </cc:Work>
    </rdf:RDF>
  </metadata>
  <path
     style="fill:#d0d0d0;stroke-width:2.05217075"
     d="M 0,7.5585938 V 52.914062 H 60.472656 V 18.072266 L 49.957031,7.5585938 Z M 12.387956,18.450455 H 46.484701 V 44.022201 H 12.387956 Z m 2.722405,2.872024 v 4.464159 h 4.465785 v -4.464159 z m 24.013762,0 v 4.464159 h 4.465786 v -4.464159 z m -24.096702,7.680957 v 4.465785 h 4.464159 v -4.465785 z m 24.012135,0 v 4.465785 h 4.464159 v -4.465785 z m -24.046288,7.680956 v 4.465785 h 4.46416 v -4.465785 z m 24.012137,0 v 4.465785 h 4.465785 v -4.465785 z"
     transform="scale(0.26458333)"
     id="rect816"
     inkscape:connector-curvature="0"
     sodipodi:nodetypes="ccccccccccccccccccccccccccccccccccccccccc"
     inkscape:label="#" />
</svg>
